X:1
T:Dir, o schönste Himmelsblüte
T:Max Reger (1873 - 1916)
T:Source: Vier Marienlieder. Leicht ausführbare Kompositionen zum gottesdienstlichen Gebrauch Op. 61e für Sopran und Alt (oder Tenor und Bass) und Orgel.  Composed in Weiden or Munich from July to November 1901. Lyrics allegedly translated from St. Bernard of Clairvaux.  Source unknown.
T:Mässig bewegt
T:Dir, o schönste Himmelsblüte
T:From Vier Marienlieder
T:©
T:©
T:©
T:©
T:©
C:Max Reger
C:(1873 - 1916)
Z:©
%%score [ 1 2 ] { ( 3 4 ) | ( 5 6 ) }
L:1/8
Q:1/4=75
M:4/4
K:G
V:1 treble nm="Soprano (Tenor)" snm="S"
V:2 treble nm="Alto (Bass)" snm="A"
V:3 treble nm="Organ" snm="Org."
V:4 treble 
V:5 bass 
V:6 bass 
V:1
 z4 | z8!p! |!<(! B2 GA!<)! B2 cd | e3!>(! d d2 c2!>)! |!<(! BAGA!<)! B2 ^c2 | %5
w: ||1. Dir, o _ schön- ste _|Him- mels- blü- te,|Jung- frau, Mut- ter reich an|
w: ||2. Sei ge- * grüsst, o _|Sa- rons- ro- se,|die aus kö- nig- li- chem|
w: ||3. Sei ge- * grüsst, du _|Thron der Tu- gend!|Hilf dem Al- ter, schirm' die|
!>(! e4!>)! d2!<(! AB!<)! | c2 Bd e3 B | ^c2 B2 A2 BG |!>(! F2 E2!>)! D2 z2 | z4!mf!!<(! B3 G | %10
w: Gü- te, flecht' _|ich ei- nen Ro- sen-|kranz, flecht' ich ei- nen|Ro- sen- kranz!|Sü- sser|
w: Scho- sse ma- kel-|los her- * vor ge-|blüht, ma- kel- los her-|vor ge- blüht!|Steh', o|
w: Ju- gend! Steh' uns|bei im _ letz- ten|Streit! Steh' uns bei im|letz- ten Streit!|Dass wir|
 c2 d2 e3!<)! d |!>(! d2!>)! ^c2!<(! d2 F!<)!G | A3 B!>(! A2 G2!>)! | G2!p! F2!mf! A2!<(! ^A2 | %14
w: als des Len- zes|Blu- me duf- tet _|er von dei- nem|Ruh- me, strahlt in|
w: Hoch- ge- be- ne-|dei- te, all- zeit _|schüt- zend uns zur|Sei- te, wenn des|
w: mit den En- geln|dro- ben den Drei- *|ei- nen e- wig|lo- ben, der zur|
 B2 ^c2 d2 e2!<)! |!f! f4!mp!!>)!!>(! B3 ^c | d2 !courtesy!=cB!>(! A3!>)! G |!p! G4 :| z4 | z8 | %20
w: rei- nem Per- len-|glanz, strahlt in|rei- nem _ Per- len-|glanz.|||
w: Fein- des Grimm er-|glüht, wenn des|Fein- des _ Grimm er-|glüht.|||
w: Mut- ter dich ge-|weiht, der zur|Mu- ter _ dich ge-|weiht.|||
 z8 |] %21
w: |
w: |
w: |
V:2
 z4 | z8!p! |!<(! GF E2!<)! DG AB | c3!>(! B B2!>)! A2 |!<(! GFEF!<)! G2 FE | %5
w: ||1. Dir, _ o schön- * ste _|Him- mels- blü- te,|Jung- frau, Mut- ter reich an _|
w: ||2. Sei _ ge- grüsst, _ o _|Sa- rons- ro- se,|die aus kö- nig- li- chem _|
w: ||3. Sei _ ge- grüsst, _ du _|Thron der Tu- gend!|Hilf dem Al- ter, schirm' die _|
"^kel\nuns"!>(! G4!>)! F2!<(! =F2!<)! | E!courtesy!^FG=F E3 E | E2 DE EFGE |!>(! D2 ^C2!>)! D2 z2 | %9
w: Gü- te, flecht'|ich _ ei- nen Ro- sen-|kranz, flecht' _ ich _ ei- nen|Ro- sen- kranz!|
w: Scho- sse ma-|los _ her- * vor ge-|blüht, ma- * kel- * los her-|vor ge- blüht!|
w: Ju- gend! Steh'|bei _ im _ letz- ten|Streit! Steh' _ uns _ bei im|letz- ten Streit!|
 z4!mf!!<(! D3 B, | E2 =F2 G3!<)! ^F |!>(! G2!>)! G2!<(! FE D2!<)! | D3 D!>(! F2 E2!>)! | %13
w: Sü- sser|als des Len- zes|Blu- me duf- * tet|er von dei- nem|
w: Steh', o|Hoch- ge- be- ne-|dei- te, all- * zeit|schüt- zend uns zur|
w: Dass wir|mit den En- geln|dro- ben den _ Drei-|ei- nen e- wig|
 E2!p! D2!mf! F2!<(! E2 | D2 F2 F2 B2!<)! |!f! ^A2!>(! F!>)!E!mp! D2 G2 | G2 G2!>(! G2 F2!>)! | %17
w: Ruh- me, strahlt in|rei- nem Per- len-|glanz, _ _ strahlt in|rei- nem Per- len-|
w: Sei- te, wenn des|Fein- des Grimm er-|glüht, _ _ wenn des|Fein- des Grimm er-|
w: lo- ben, der zur|Mut- ter dich ge-|weiht, _ _ der zur|Mu- ter dich ge-|
!p! G4 :| z4 | z8 | z8 |] %21
w: glanz.||||
w: glüht.||||
w: weiht.||||
V:3
 B2 GA | B2 AG F3 G- | G3 A B2 dg- | g4 f4 | e8- | e4 A2 d2 | c2 Bd B2 d2 | ^c2 d2 A2 B2 | %8
 d2 e2 f2 ef | g2 a2 b2 z2 | z4 z2 A2 | d2 ^c2 d4- | d4 ^d2 e2 | ^c2 !courtesy!=d4 c2 | %14
 dB f2- fd e2 | ^c3 d B4- | B2 G4 F2 | G3 A :| B2 AG | B2 d2 c2 B2 | A4 !fermata!G4 |] %21
V:4
 GF E2 | D2 E4 DC | B,2 E2 D2 AB | c3 B- B2 A2 | G8- | G4 F2 =F2 | E!courtesy!^FG=F E4- | %7
 E2 DE- E4 | F2 A6 | G2 dc B2 z2 | G7 F | G4 F4 | A6 G2- | G2 F6- | F6 B2 | ^A2 FE D2 E2 | %16
 DE F2 E2 D2- | D4 :| GF E2 | DFGF E3 E- | E2 DC B,4 |] %21
V:5
 D2 C2 | B,2 C4 B,A, | G,2 C2 B,2 D2 | E3 D- D2 C2 | B,2 D4 ^C2 | A,2 B,^C D2 A,2- | %6
 A,2 D2 B,2 ^G,2 | A,^G,F,G, A,2 =G,2 | A,2 ^C2 D2 =C2 | B,2 FE D2 z2 | C3 B, _B,2 A,2- | %11
 A,2 E2 D4- | D2 !courtesy!=C4 B,2 | A,6 ^A,2 | B,D^CE DFEB, | ^CB, ^A,2 B,=A, G,2- | G,4 A,B, C2 | %17
 B,3 C :| D2 C2 | B,3 A, G,4- | G,2 F,2 !fermata![D,G,]4 |] %21
V:6
 G,4- | G,2 C,2 D,4 | G,,4 G,4 | C,2 G,2 D,2 ^D,2 | E,4 A,,4 | D,8 | A,,2 G,,2 ^G,,2 E,,2 | %7
 A,,2 B,,2 ^C,2 E,2 | A,,4 D,4- | D,4 G,,2 =F,2 | E,2 D,2 ^C,2 D,2 | E,2 A,,2 B,,4 | F,,4 G,,4 | %13
 A,,2 D,4 F,2 | B,,2 ^A,,2 B,,2 G,,2 | F,,4 G,,2 E,2 | B,,4 C,2 D,2 | G,,4 :| G,4- | %19
 G,2 B,,2 C,2 ^C,2 | D,4 G,,4 |] %21

